images/Compound-logo.svg

<svg width="271" height="60" viewBox="0 0 271 60" fill="none" xmlns="http://www.w3.org/2000/svg">
<path fill-rule="evenodd" clip-rule="evenodd" d="M264.088 34.1253C264.088 30.6166 262.022 27.9751 258.759 27.9751C255.497 27.9751 253.428 30.6166 253.428 34.1253C253.428 37.6337 255.497 40.2753 258.759 40.2753C262.028 40.282 264.088 37.6404 264.088 34.1253ZM263.928 25.6206V16.4289C263.928 15.8219 264.335 15.295 264.922 15.1415L269.797 13.8408V44.9444H264.388V42.3031C263.028 44.284 260.586 45.4446 257.53 45.4446C251.255 45.4446 247.579 40.4086 247.579 34.132C247.579 27.8551 251.255 22.8191 257.53 22.8191C260.579 22.8124 262.815 24.1331 263.928 25.6206ZM230.65 23.306V25.9475C231.644 24.0864 233.873 22.8057 237.093 22.8057C242.297 22.8057 245.064 26.2742 245.064 31.4371V44.9444H239.202V32.1042C239.202 29.5826 238.128 27.8484 235.526 27.8484C232.677 27.8484 231.11 29.6628 231.11 32.5577V44.9444H225.248V23.306H230.65ZM211.54 45.4446C205.223 45.4446 201.708 42.7166 201.708 35.6993V23.306H207.571V35.7795C207.571 38.7944 208.932 40.1951 211.533 40.1951C214.134 40.1951 215.495 38.7877 215.495 35.7795V23.306H221.358V35.6926C221.372 42.7166 217.856 45.4446 211.54 45.4446ZM182.351 34.1253C182.351 38.0073 184.745 40.2753 187.84 40.2753C190.935 40.2753 193.33 38.0006 193.33 34.1253C193.33 30.2497 190.935 27.9751 187.84 27.9751C184.752 27.9751 182.351 30.2431 182.351 34.1253ZM187.847 45.4446C180.91 45.4446 176.487 40.282 176.487 34.132C176.487 27.982 180.903 22.8191 187.847 22.8191C194.784 22.8191 199.206 27.982 199.206 34.132C199.2 40.282 194.784 45.4446 187.847 45.4446ZM158.618 34.1253C158.618 37.6337 160.686 40.2753 163.947 40.2753C167.209 40.2753 169.277 37.6337 169.277 34.1253C169.277 30.6166 167.209 27.9751 163.947 27.9751C160.686 27.9751 158.618 30.6166 158.618 34.1253ZM158.784 42.6364V51.6346C158.784 52.2417 158.378 52.7686 157.791 52.922L152.921 54.2028V23.306H158.331V25.9475C159.692 23.9664 162.133 22.8057 165.188 22.8057C171.465 22.8057 175.14 27.8417 175.14 34.1186C175.14 40.3953 171.465 45.4313 165.188 45.4313C162.126 45.4446 159.898 44.124 158.784 42.6364ZM135.505 32.6377V44.9444H129.642V32.1042C129.642 29.7095 128.775 27.8484 126.173 27.8484C123.445 27.8484 121.958 29.6228 121.958 32.5177V44.9511H116.095V23.306H121.504V25.9475C122.498 24.0864 124.646 22.8057 127.741 22.8057C130.676 22.8057 132.777 23.9597 134.018 25.8606C135.919 23.7528 138.107 22.8057 141.202 22.8057C146.404 22.8057 149.046 26.4011 149.046 31.4371V44.9444H143.183V32.1042C143.183 29.7095 142.316 27.8484 139.714 27.8484C136.946 27.8484 135.505 29.6228 135.505 32.6377ZM96.5307 34.1253C96.5307 38.0073 98.9253 40.2753 102.02 40.2753C105.115 40.2753 107.51 38.0006 107.51 34.1253C107.51 30.2497 105.115 27.9751 102.02 27.9751C98.9253 27.9751 96.5307 30.2431 96.5307 34.1253ZM102.02 45.4446C95.0831 45.4446 90.6609 40.282 90.6609 34.132C90.6609 27.982 95.0764 22.8191 102.02 22.8191C108.964 22.8191 113.38 27.982 113.38 34.132C113.38 40.282 108.957 45.4446 102.02 45.4446ZM60.2375 30.2431C60.2375 21.0781 66.5544 15.0015 74.9789 15.0015C82.2896 15.0015 88.0727 19.3372 89.1867 26.4811H82.7431C81.876 22.8057 78.9011 20.7379 74.9789 20.7379C69.6093 20.7379 66.5944 24.4533 66.5944 30.2364C66.5944 36.0195 69.6093 39.7348 74.9789 39.7348C78.9011 39.7348 81.876 37.6671 82.7431 33.9917H89.1867C88.0727 41.1357 82.2896 45.4713 74.9789 45.4713C66.5544 45.4846 60.2375 39.4146 60.2375 30.2431Z" fill="white"/>
<path fill-rule="evenodd" clip-rule="evenodd" d="M2.53835 46.7618C1.0442 45.8478 0.130371 44.2204 0.130371 42.4727V32.714C0.130371 32.3404 0.230426 31.9804 0.417193 31.6602C0.997509 30.6596 2.28488 30.3196 3.28542 30.9064L25.3108 43.7467C26.5981 44.5004 27.3919 45.8747 27.3919 47.3687V57.4809C27.3919 57.9411 27.265 58.4013 27.025 58.7949C26.2979 59.9822 24.7504 60.3558 23.563 59.6287L2.53835 46.7618ZM35.3695 28.2316C36.6568 28.9853 37.4506 30.3596 37.4506 31.8536V52.3713C37.4506 52.9784 37.1237 53.5387 36.5968 53.8322L31.7741 56.5471C31.7141 56.5804 31.6475 56.6071 31.5808 56.6271V45.2342C31.5808 43.76 30.807 42.3927 29.5397 41.6322L10.1958 30.0593V17.199C10.1958 16.8254 10.2959 16.4653 10.4827 16.1451C11.063 15.1445 12.3503 14.8044 13.3509 15.3913L35.3695 28.2316ZM45.0081 13.0768C46.3021 13.8238 47.0959 15.2112 47.0959 16.7054V46.6751C47.0959 47.2887 46.7557 47.8556 46.2155 48.1491L41.6461 50.6171V29.7524C41.6461 28.2784 40.8726 26.9176 39.6119 26.1571L19.8411 14.2974V2.09745C19.8411 1.72392 19.9411 1.36372 20.1212 1.04355C20.7015 0.043004 21.9889 -0.29718 22.9895 0.283135L45.0081 13.0768Z" fill="white"/>
</svg>

<svg xmlns="http://www.w3.org/2000/svg" width="271" height="60" fill="none"><path fill="#fff" fill-rule="evenodd" d="M264.088 34.125c0-3.508-2.066-6.15-5.329-6.15-3.262 0-5.331 2.642-5.331 6.15 0 3.509 2.069 6.15 5.331 6.15 3.269.007 5.329-2.635 5.329-6.15Zm-.16-8.504v-9.192c0-.607.407-1.134.994-1.287l4.875-1.301v31.103h-5.409v-2.64c-1.36 1.98-3.802 3.14-6.858 3.14-6.275 0-9.951-5.035-9.951-11.312 0-6.277 3.676-11.313 9.951-11.313 3.049-.007 5.285 1.314 6.398 2.802Zm-33.278-2.315v2.642c.994-1.862 3.223-3.142 6.443-3.142 5.204 0 7.971 3.468 7.971 8.631v13.507h-5.862v-12.84c0-2.521-1.074-4.256-3.676-4.256-2.849 0-4.416 1.815-4.416 4.71v12.386h-5.862V23.306h5.402Zm-19.11 22.139c-6.317 0-9.832-2.728-9.832-9.746V23.306h5.863v12.473c0 3.015 1.361 4.416 3.962 4.416s3.962-1.407 3.962-4.416V23.306h5.863v12.387c.014 7.024-3.502 9.752-9.818 9.752Zm-29.189-11.32c0 3.882 2.394 6.15 5.489 6.15 3.095 0 5.49-2.274 5.49-6.15 0-3.875-2.395-6.15-5.49-6.15-3.088 0-5.489 2.268-5.489 6.15Zm5.496 11.32c-6.937 0-11.36-5.163-11.36-11.313s4.416-11.313 11.36-11.313c6.937 0 11.359 5.163 11.359 11.313-.006 6.15-4.422 11.313-11.359 11.313Zm-29.229-11.32c0 3.509 2.068 6.15 5.329 6.15 3.262 0 5.33-2.641 5.33-6.15 0-3.508-2.068-6.15-5.33-6.15-3.261 0-5.329 2.642-5.329 6.15Zm.166 8.511v8.999c0 .607-.406 1.134-.993 1.287l-4.87 1.28V23.307h5.41v2.642c1.361-1.982 3.802-3.142 6.857-3.142 6.277 0 9.952 5.036 9.952 11.313 0 6.276-3.675 11.312-9.952 11.312-3.062.014-5.29-1.307-6.404-2.795Zm-23.279-9.998v12.306h-5.863v-12.84c0-2.395-.867-4.256-3.469-4.256-2.728 0-4.215 1.775-4.215 4.67V44.95h-5.863V23.306h5.409v2.642c.994-1.862 3.142-3.142 6.237-3.142 2.935 0 5.036 1.154 6.277 3.055 1.901-2.108 4.089-3.055 7.184-3.055 5.202 0 7.844 3.595 7.844 8.631v13.507h-5.863v-12.84c0-2.395-.867-4.256-3.469-4.256-2.768 0-4.209 1.775-4.209 4.79Zm-38.974 1.487c0 3.882 2.394 6.15 5.489 6.15 3.095 0 5.49-2.274 5.49-6.15 0-3.875-2.395-6.15-5.49-6.15s-5.49 2.268-5.49 6.15Zm5.489 11.32c-6.937 0-11.36-5.163-11.36-11.313s4.416-11.313 11.36-11.313c6.944 0 11.36 5.163 11.36 11.313s-4.423 11.313-11.36 11.313ZM60.238 30.243c0-9.165 6.316-15.241 14.74-15.241 7.312 0 13.095 4.335 14.209 11.48h-6.444c-.867-3.676-3.842-5.744-7.764-5.744-5.37 0-8.385 3.715-8.385 9.498 0 5.784 3.015 9.499 8.385 9.499 3.922 0 6.897-2.068 7.764-5.743h6.444c-1.114 7.144-6.897 11.48-14.208 11.48-8.425.013-14.742-6.057-14.742-15.229ZM2.538 46.762a5.034 5.034 0 0 1-2.408-4.29v-9.758c0-.374.1-.734.287-1.054.58-1 1.868-1.34 2.868-.754l22.026 12.84a4.195 4.195 0 0 1 2.08 3.623V57.48c0 .46-.126.92-.366 1.314a2.516 2.516 0 0 1-3.462.834L2.538 46.762Zm32.831-18.53a4.195 4.195 0 0 1 2.082 3.622V52.37c0 .607-.327 1.168-.854 1.461l-4.823 2.715a.985.985 0 0 1-.193.08V45.234a4.201 4.201 0 0 0-2.041-3.602L10.196 30.06V17.2c0-.374.1-.734.287-1.054.58-1 1.867-1.34 2.868-.754l22.019 12.84Zm9.64-15.155a4.19 4.19 0 0 1 2.087 3.628v29.97c0 .614-.34 1.18-.88 1.474l-4.57 2.468V29.752a4.198 4.198 0 0 0-2.034-3.595l-19.77-11.86v-12.2c0-.373.1-.733.28-1.053.58-1.001 1.867-1.341 2.867-.76l22.02 12.793Z" clip-rule="evenodd"/></svg>
